!!!!SEGMENT: pl-lzu--m-15111--001-009_noskowski-zygmunt--spiewnik-dla-dzieci-op-34-9-kolednicy.krn
!!!cenid: 18xx:4706
!!!COM: Noskowski, Zygmunt
!!!COM-rismID: pe106604
!!!CDT: 1846/05/02-1909/07/23
!!!CNT: Polish
!!!GTL: Śpiewnik dla dzieci, op. 34
!!!OTL: 9. Kolędnicy
!!!OMV: 009
!!!PDT: 1890
!!!AGN: Secular; Song; Children
!!!YEC: Copyright 2022 Narodowy Instytut Fryderyka Chopina (https://polishscores.org)
!!!YEM: License CC-BY-4.0 (https://creativecommons.org/licenses/by/4.0)
!!!SMS-siglum: PL-LŹu
!!!SMS-shelfmark: M 15111
!!!SMS-variant:
!!!SMS-altvar:
!!!SMS-shelfwork: 001-009 G
!!!NIFC-rismSourceID: 1001234040
!!!NIFC-rismChildID: 1001234040
!!!NIFC-islandoraID: pl-lzu:5455
!!!URL-pdf-islandora: https://repozytorium.nifc.pl/islandora/object/pl-lzu%3A5455/datastream/PDF/view
!!!URL-scan: https://polish.musicsources.pl/pl/lokalizacje/galeria/druki-muzyczne/23228/15 @EN{Scan on Polish Music Sources Website} @PL{Skany w portalu Dziedzictwo Muzyki Polskiej w otwartym dostępie}
!!!IIIF:
!!!ONB-nifc:
!!!AIN: 1 piano 1 vox
!!!key: G
!!!OMD: Allegretto.
**kern	**kern	**dynam	**kern	**text	**text	**text	**text	**dynam
*part2	*part2	*part2	*part1	*part1	*part1	*part1	*part1	*part1
*staff3	*staff2	*staff2/3	*staff1	*staff1	*staff1	*staff1	*staff1	*staff1
*I"[Piano]	*I"[Piano]	*	*I"[Voice]	*	*	*	*	*
*I'pf	*I'pf	*	*I'V	*	*	*	*	*
*Ipiano	*Ipiano	*	*Ivox	*	*	*	*	*
*ICklav	*ICklav	*	*ICvox	*	*	*	*	*
*Gacmp	*Gacmp	*	*IGsolo	*	*	*	*	*
*>[A,A,A,A]	*>[A,A,A,A]	*>[A,A,A,A]	*>[A,A,A,A]	*>[A,A,A,A]	*>[A,A,A,A]	*>[A,A,A,A]	*>[A,A,A,A]	*>[A,A,A,A]
*>A	*>A	*>A	*>A	*>A	*>A	*>A	*>A	*>A
*clefF4	*clefG2	*	*clefG2	*	*	*	*	*
*k[f#]	*k[f#]	*	*k[f#]	*	*	*	*	*
*G:	*G:	*	*G:	*	*	*	*	*
*M2/4	*M2/4	*	*M2/4	*	*	*	*	*
=1	=1	=1	=1	=1	=1	=1	=1	=1
*	*^	*	*	*	*	*	*	*
!	!	!	!LO:DY:rj	!	!	!	!	!	!
2D 2GG^/	2d^/	(>4B\	mf	2r	.	.	.	.	.
.	.	8A\L	.	.	.	.	.	.	.
.	.	16B\L	.	.	.	.	.	.	.
.	.	16A\JJ)	.	.	.	.	.	.	.
=2	=2	=2	=2	=2	=2	=2	=2	=2	=2
2D 2GG^/	2d^/	8c\L	.	2r	.	.	.	.	.
.	.	8B\	.	.	.	.	.	.	.
.	.	8G\	.	.	.	.	.	.	.
.	.	8A\J	.	.	.	.	.	.	.
=3	=3	=3	=3	=3	=3	=3	=3	=3	=3
2D 2GG^/	2d^/	(>4B\	.	2r	.	.	.	.	.
.	.	8A\L	.	.	.	.	.	.	.
.	.	16B\L	.	.	.	.	.	.	.
.	.	16A\JJ)	.	.	.	.	.	.	.
=4	=4	=4	=4	=4	=4	=4	=4	=4	=4
2D 2GG^/	2d^/	8c\L	.	2r	.	.	.	.	.
.	.	8B\	.	.	.	.	.	.	.
.	.	8G\	.	.	.	.	.	.	.
.	.	8A\J	.	.	.	.	.	.	.
=5	=5	=5	=5	=5	=5	=5	=5	=5	=5
*	*	*	*	*	*v:1	*v:2	*v:3	*v:4	*
2D 2GG^/	8d/L	4B\	.	8d/	A	Trzej	Ko-	Trzej	mf
.	8g/J	.	.	8g/	ten	kró-	-len-	kró-	.
.	8eL 8A/	4ryy	.	8e/	chu-	-lo-	-da,	-lo-	.
.	8f#J 8c/	.	.	8f#/	-dy	-wa	ko-	-wa	.
*	*v	*v	*	*	*	*	*	*	*
!!LO:LB:g=original
=6	=6	=6	=6	=6	=6	=6	=6	=6
*	*	*	*	*v:1	*v:2	*v:3	*v:4	*
2D 2GG^/	4g 4B/	.	4g/	Ja-	gwia-	-len-	gwia-	.
.	8bL 8g/	<	(8b\L	-nek	-zda	-da,	-zda,	.
.	8ccJ 8f#/	.	8cc\J)	.	.	.	.	.
=7	=7	=7	=7	=7	=7	=7	=7	=7
2D 2GG^/	8ddL 8e/	[	8dd\	Po	Za-	We-	A	.
.	8ddJ 8f#/	.	8dd\	u-	-świe-	-so-	po	.
.	8cc#XL 8g/	.	8cc#X\	-li-	-ci	-ła	niej	.
.	8eeJ 8e/	.	8ee\	-cy	w o-	no-	za-	.
=8	=8	=8	=8	=8	=8	=8	=8	=8
*	*^	*	*	*	*	*	*	*
2D 2GG^/	4a/	8f#\L	>	4a/	cho-	-kien-	-wi-	-pu-	.
.	.	8e\J	.	.	.	.	.	.	.
.	8ddL 8d/	4ryy	.	(8dd\L	-dzi,	-ko,	-na!	-sty,	.
.	8ccnJ 8f#/	.	]	8ccn,\J)	.	.	.	.	.
=9	=9	=9	=9	=9	=9	=9	=9	=9	=9
2D 2GG^/	4b/	8g\L	.	4b\	Z trzej	Ko-	A	Nie	.
.	.	8a\J	.	.	.	.	.	.	.
.	4b/	8g\L	.	4b\	kró-	-len-	pójdź-	bój	.
.	.	8e\J	.	.	.	.	.	.	.
*	*v	*v	*	*	*	*	*	*	*
=10	=10	=10	=10	=10	=10	=10	=10	=10
2D 2GG^/	8ccL 8d/	.	8cc\	-lo-	-dni-	-cież	się	.
.	8b 8e/	.	8b\	-wą	-cy	się	ty	.
.	8a 8f#/	.	8a/	gwiaz-	hu-	o-	Jan-	.
.	8ddJ 8d/	.	8dd\	-dą	-kną	-grzać!	-ku,	.
!!LO:PB:g=original
=11	=11	=11	=11	=11	=11	=11	=11	=11
*	*	*	*	*v:1	*v:2	*v:3	*v:4	*
2D 2GG^/	8bL 8g/	.	8b/	Ko-	We-	Bli-	Bę-	.
.	8aJ 8d/	.	8a/	-len-	-so-	-żej	-dziesz	.
.	8gL 8B/	.	8g/	-dni-	-łą	do	je-	.
.	(16eL 16c/	.	(16e/LL	-ków	pio-	ko-	-szcze	.
.	16f#/JJ)	.	16f#/JJ)	.	.	.	.	.
=12	=12	=12	=12	=12	=12	=12	=12	=12
2D 2GG^/	4g 4B/	.	4g/	wo-	-sen-	-mi-	tłu-	.
.	4g 4B/	.	4g,/	-dzi.	-ką.	-na.	-sty.	.
=13	=13	=13	=13	=13	=13	=13	=13	=13
*	*^	*	*^	*	*	*	*	*
!	!	!	!	!LO:TX:a:i:t=Chór	!	!	!	!	!	!LO:DY:rj
2D 2DD^/	2a/	(>8f#\L	f	2a/	(>8f#\L	Hej!	.	.	.	f
.	.	8e\J	.	.	8e\J	.	.	.	.	.
.	.	4d\)	.	.	4d\)	.	.	.	.	.
=14	=14	=14	=14	=14	=14	=14	=14	=14	=14	=14
2BB 2BBB^/	4b/	(>8g\L	.	4b/	(>8g\L	hej!	.	.	.	.
.	.	8e\J)	.	.	8e\J)	.	.	.	.	.
.	4dd 4d/	4ryy	.	4dd/	4d\	hej!	.	.	.	.
=15	=15	=15	=15	=15	=15	=15	=15	=15	=15	=15
2C 2DD^/	(4a/	8f#\L	.	4a/	(>8f#\L	hej!	.	.	.	.
.	.	8e\J	.	.	8e\J)	.	.	.	.	.
.	8cc/L	4d\	.	(<8cc/L	4d\	hej!	.	.	.	.
.	8b/J)	.	.	8b/J)	.	.	.	.	.	.
*	*v	*v	*	*	*	*	*	*	*	*
*	*	*	*v	*v	*	*	*	*	*
=16	=16	=16	=16	=16	=16	=16	=16	=16
2D 2GG^/	2g 2B^/	.	2g 2B/	hej!	.	.	.	.
=:|!	=:|!	=:|!	=:|!	=:|!	=:|!	=:|!	=:|!	=:|!
*-	*-	*-	*-	*-	*-	*-	*-	*-
!!!system-decoration: p1{p2}
!!!RDF**kern: > = above
!!!RDF**kern: < = below
!!!ENC: Andrzej Gręziak
!!!END: 2025-03-04
!!!ENC: Marta Lawrence
!!!END: 2025-03-20
